X:2828
T:Chanson de la gerbe
A:Normandie
O:France
M:2/4
L:1/8
Q:1/4=110
K:A
A2 EA|Bc d2|c2 B z:||c2 AA|Bc d2|B4|
M:3/4
L:1/8
|:A2 A/2B/2A/2G/2 FB| F2 E4:||F/2G/2A/2G/2 F2 B2|A6||
W:
W:Ah! salut à la bourgeoise
W:Et le bourgeois en suivant
W:refrain 
W:Ah! battu j'avons la gerbe
W:Aujourd'hui joyeusement
W:
W:Voici la Saint Jean qu'arrive (bis)
W:Et le mois d'août en suivant
W:
W:Par un matin je m'y lève (bis)
W:Par un beau soleil levant.
W:
W:Je vais au jardin et j'entre (bis)
W:Par une porte d'argent.
W:
W:J'y vois planté un romarin (bis)
W:Qui fleurissait rouge et blanc


